GJ-Cho/cho-python-sample/src/project/UR_communication_test/ur_rtde_joint_log.csv
time,loop_count,joint_1,joint_2,joint_3,joint_4,joint_5,joint_6
0.0009765625,1,-64.06617116764228,-76.18040680025476,-115.15065457807356,-79.32763470228312,91.91703548982292,25.877896404123163
0.1360001564025879,1,-64.06617116822314,-76.8123035119905,-117.51736178276273,-76.32903078587752,91.91703548981631,25.877896403542017
0.22042584419250488,1,-64.06617116883055,-77.6470272978033,-119.89591785366208,-73.11575092918558,91.91703548980928,25.877896402934418
0.28960394859313965,1,-64.0661711692912,-78.4050706383246,-121.63277199749136,-70.62085344485037,91.91703548980394,25.877896402473638
0.35982751846313477,1,-64.0661711698132,-79.40120873763755,-123.52914757936679,-67.72833976367926,91.91703548979788,25.877896401951432
0.4310009479522705,1,-64.06617117030449,-80.47785438590383,-125.24156572555465,-64.9392759692415,91.91703548979218,25.877896401459928
0.49576354026794434,1,-64.06617117076503,-81.6150548750402,-126.78060249507908,-62.263038710596064,91.91703548978684,25.877896400999145
0.5639669895172119,1,-64.06617117122558,-82.8807452373999,-128.25264004826755,-59.52531079506335,91.9170354897815,25.87789640053834
0.6341860294342041,1,-64.06617117174754,-84.47596794517423,-129.83605182501995,-56.34667631055403,91.91703548977543,25.877896400016084
0.7033648490905762,1,-64.06617117223877,-86.13809413605424,-131.23961329576454,-53.28098864894581,91.91703548976973,25.877896399524538
0.7716143131256104,1,-64.06617117269931,-87.84115678424715,-132.47493788918072,-50.342601407352014,91.91703548976439,25.8778963990637
0.8457555770874023,1,-64.06617117319009,-89.81248782116451,-133.700973128318,-47.14523513131373,91.91703548975875,25.877896398572574
0.9114944934844971,1,-64.06617117347731,-91.0413004796718,-134.3731639067554,-45.2442316943787,91.91703548975543,25.87789639828513
0.9787204265594482,1,-64.06617117366402,-91.87007181897842,-134.79168363186372,-43.99694062997,91.91703548975333,25.877896398098162
1.044508934020996,1,-64.06617117370361,-92.04890561369494,-134.87855907270713,-43.73123139441141,91.91703548975289,25.877896398058436
1.112764596939087,1,-64.06617117360739,-91.61657087986175,-134.66648338214415,-44.37564181880432,91.917035489754,25.877896398154665
1.1807503700256348,1,-64.06617117338016,-90.61988557180723,-134.14986814561996,-45.88894236337536,91.91703548975663,25.87789639838203
1.2490465641021729,1,-64.06617117299152,-88.99599202531023,-133.2168527422763,-48.44585131320296,91.91703548976109,25.877896398770808
1.3202221393585205,1,-64.06617117244122,-86.87031243646757,-131.793206574781,-51.995177069522455,91.91703548976746,25.877896399321273
1.3913800716400146,1,-64.06617117194983,-85.14272426790554,-130.42569187317386,-55.090279939675334,91.91703548977316,25.877896399812716
1.461029291152954,1,-64.06617117151991,-83.7604700965301,-129.15840427391345,-57.739821710296894,91.91703548977814,25.877896400242697
1.5282974243164062,1,-64.06617117102869,-82.32492378491592,-127.6331961142172,-60.700576181590975,91.91703548978384,25.8778964007341
1.5949816703796387,1,-64.06617117059884,-81.19128776844121,-126.23436795020366,-63.23304036206488,91.91703548978883,25.877896401164097
1.6672444343566895,1,-64.06617117004618,-79.8955818962644,-124.35173411235738,-66.41138007206965,91.91703548979524,25.877896401716978
1.7389662265777588,1,-64.06617116952415,-78.83216166892409,-122.49044372321397,-69.33609068853602,91.9170354898013,25.87789640223912
1.8096587657928467,1,-64.06617116900219,-77.91722429072652,-120.55148005308598,-72.18999173684422,91.91703548980736,25.877896402761294
1.8793091773986816,1,-64.06617116848022,-77.14371108998515,-118.53737434648984,-74.97761064416449,91.91703548981341,25.877896403283493
1.9515082836151123,1,-64.06617116800966,-76.56184363408714,-116.65860443827061,-77.43824800826614,91.9170354898189,25.87789640375432
2.0251305103302,1,-64.06617116770524,-76.24138113688068,-115.41176305377333,-79.00555188995988,91.91703548982248,25.877896404058976
2.0943357944488525,1,-64.06617116757114,-76.11378619698408,-114.8548066938669,-79.69010318975846,91.91703548982413,25.87789640419321
2.159107208251953,1,-64.13165704606776,-76.13048486582554,-114.80393838523568,-79.72584491754431,91.9154457117396,25.81241092221755
2.2239017486572266,1,-64.46987307531899,-76.25011253049782,-114.69270021229376,-79.72557481539666,91.90723495785707,25.474196940884823
2.285896062850952,1,-65.04538136928673,-76.4536709288366,-114.50341737056786,-79.7251152096631,91.89326354151238,24.89869213165449
2.3523387908935547,1,-66.01030513382138,-76.79496633341455,-114.18605702300323,-79.7243446134801,91.8698384201084,23.933774209791505
2.4141933917999268,1,-67.21252116307255,-77.22019247165903,-113.79065200665461,-79.72338451371125,91.84065263624224,22.731565460030918
2.4808766841888428,1,-68.70273719232378,-77.74728476776096,-113.30052470917047,-79.72219441473537,91.80447517571486,21.24135845412771
2.544569253921509,1,-70.48095322157496,-78.37624322172027,-112.71567513055076,-79.72077431655251,91.76130603852627,19.463153192081887
2.6098501682281494,1,-72.6951569861096,-79.15941138215967,-111.9874305768159,-79.71900603492027,91.70755257747186,17.248962834684697
2.6755597591400146,1,-75.23704075064418,-80.0584805933169,-111.1514131165446,-79.7169760653014,91.64584414208291,14.707094461409678
2.7403347492218018,1,-78.1066045151788,-81.07345085519187,-110.20762274973681,-79.71468440769584,91.57618073235942,11.837548072256839
2.8056561946868896,1,-81.09442054443001,-82.13024717215235,-109.22493959034783,-79.71229831284339,91.50364655319373,8.849750134412009
2.8694653511047363,1,-84.37023657368118,-83.28890964697021,-108.14753414982327,-79.70968221878384,91.42412069736682,5.573953940424562
2.9362215995788574,1,-88.1538715332041,-84.62718866107289,-106.90310868332944,-79.70666057628232,91.33226669652984,1.790341891039674
3.00152850151062,1,-91.9938715332041,-85.98540409917177,-105.6401449348554,-79.70359392018842,91.23904434104698,-2.0496348575285865
3.068267345428467,1,-95.5748251554058,-87.25199433166922,-104.4623807135514,-79.70073414069688,91.15211076512601,-5.630566796839992
3.13651967048645,1,-98.9260839810195,-88.43734106969357,-103.3601623780036,-79.69805779738964,91.07075341055402,-8.981805330379267
3.207693338394165,1,-102.37601731671505,-89.65758917306688,-102.22549031091101,-79.69530265179395,90.98700056893621,-12.431717776520248
3.2724623680114746,1,-105.28509339736968,-90.68653501768904,-101.2687044693955,-79.69297943932251,90.9163779323431,-15.340776242543683
3.337193250656128,1,-107.71475222298338,-91.54591005056966,-100.46959743348143,-79.69103909347781,90.857393943087,-17.77042035642654
3.4024853706359863,1,-109.85641104859711,-92.3034189255929,-99.7652126787029,-79.6893287468401,90.80540163049211,-19.912066214166806
3.4686193466186523,1,-111.82340712925176,-92.99914924940147,-99.11827394347965,-79.68775788733038,90.75764954511082,-21.87905038454145
3.536860227584839,1,-113.46272320990634,-93.57897852249232,-98.5791081147929,-79.68644871580732,90.71785243406404,-23.518356539038297
3.6045382022857666,1,-114.77435929056102,-94.04290674486533,-98.14771519264254,-79.68540123227096,90.68601029735183,-24.829984677657297
3.6704797744750977,1,-115.70641811617469,-94.37257775688745,-97.84116401863331,-79.68465688230283,90.66338302673404,-25.762037859598554
3.739806890487671,1,-116.41459145187021,-94.62306003745819,-97.60824806795118,-79.68409132915819,90.646190946931,-26.470206907261804
3.8080217838287354,1,-116.72003302244298,-94.73109531261161,-97.50778930990163,-79.68384740096714,90.63877584727703,-26.77564662836748
3.874659538269043,1,-116.78460685338324,-94.76377045871986,-97.52671102710208,-79.63380073056724,90.63720821065645,-26.84022006830917
3.9399893283843994,1,-116.78460685347112,-94.87856089703764,-97.98123427589134,-79.06448704346116,90.63720821065351,-26.840220068397002
4.007673025131226,1,-116.78460685368918,-95.18601848840737,-99.0885874107788,-77.64967631720629,90.6372082106462,-26.840220068614908
4.073934555053711,1,-116.78460685400856,-95.69502356908484,-100.65869383928029,-75.57056480803078,90.63720821063546,-26.840220068934137
4.142624139785767,1,-116.7846068543717,-96.35843706483753,-102.36767555643614,-73.19816959512625,90.63720821062326,-26.84022006929677
4.202491521835327,1,-116.78460685468944,-97.01381858023868,-103.79786472728615,-71.11259890887851,90.63720821061257,-26.84022006961401
4.2640955448150635,1,-116.78460685500694,-97.73961194369377,-105.16706201025833,-69.01760826245467,90.63720821060188,-26.840220069931203
4.3270063400268555,1,-116.78460685534714,-98.59585016059735,-106.56597775016475,-66.76245430564836,90.63720821059043,-26.840220070271087
4.383956670761108,1,-116.78460685561929,-99.33963466823582,-107.63398877534031,-64.95065877283727,90.63720821058126,-26.840220070543037
4.4458043575286865,1,-116.78460685593684,-100.2735934763413,-108.82197594999143,-62.82871279008404,90.63720821057058,-26.84022007086033
4.512056350708008,1,-116.78460685629973,-101.42828715408385,-110.1021996822198,-60.39379538011703,90.63720821055837,-26.840220071222912
4.572380781173706,1,-116.78460685663993,-102.59513672657276,-111.22622077715593,-58.10292471269555,90.63720821054692,-26.840220071562904
4.634231090545654,1,-116.78460685695747,-103.75732215419157,-112.20769238340445,-55.959267678831594,90.63720821053624,-26.840220071880193
4.6972362995147705,1,-116.78460685727497,-104.98936738771603,-113.1227994460907,-53.81211538262429,90.63720821052564,-26.840220072197535
4.760096073150635,1,-116.78460685757851,-106.23202827591459,-113.93485137776645,-51.75740256275319,90.63720821051557,-26.840220072501037
4.820971727371216,1,-116.7846068576432,-106.50470870541515,-114.09973295630972,-51.31984055471005,90.63720821051344,-26.840220072565717
4.883756637573242,1,-116.78460685768711,-106.69153304519874,-114.21011006709942,-51.02263910413722,90.63720821051199,-26.840220072609636
4.946584463119507,1,-116.78460685784792,-107.38657800526501,-114.60300680991988,-49.93469740125219,90.63720821050671,-26.840220072770496
5.010945796966553,1,-116.7846068579096,-107.6578798703105,-114.7490802944265,-49.517322051700674,90.63720821050474,-26.840220072832377
5.0748069286346436,1,-116.78460685789051,-107.57374081655169,-114.70420314528656,-49.646338254599215,90.63720821050539,-26.840220072813345
5.13713526725769,1,-116.78460685778767,-107.1244684333602,-114.45805383364325,-50.341759949432955,90.63720821050885,-26.8402200727106
5.202869176864624,1,-116.78460685758269,-106.25028321869746,-113.94603200693872,-51.72796699079798,90.63720821051571,-26.840220072505822
5.269291639328003,1,-116.78460685728051,-105.01254272107394,-113.13890953571897,-53.77282995963806,90.63720821052584,-26.8402200722039
5.331154108047485,1,-116.78460685696275,-103.77923046192618,-112.22502778962892,-55.920023964872506,90.63720821053653,-26.84022007188666
5.390480279922485,1,-116.78460685664501,-102.61576135942246,-111.2447615189066,-58.06375933809518,90.63720821054721,-26.840220071569416
5.453890323638916,1,-116.78460685632736,-101.52287263086363,-110.19916909266193,-60.20224049289536,90.6372082105579,-26.840220071252276
5.518051624298096,1,-116.78460685596447,-100.36087616403425,-108.92548425121481,-62.637921801168105,90.63720821057011,-26.840220070889846
5.578896760940552,1,-116.78460685564693,-99.42051772722152,-107.7431376313495,-64.76062685784285,90.63720821058075,-26.840220070572705
5.643696546554565,1,-116.78460685530668,-98.49211420462416,-106.40697670292985,-67.02519130885638,90.63720821059201,-26.84022007023282
5.707492113113403,1,-116.78460685494375,-97.59179397837208,-104.90353040219432,-69.42895783584024,90.63720821060402,-26.840220069870288
5.7702813148498535,1,-116.78460685462615,-96.87983644292486,-103.52235816318931,-71.52208761028928,90.63720821061445,-26.840220069553098
5.834089279174805,1,-116.78460685428595,-96.1950472439198,-101.97490604137248,-73.75432893110765,90.6372082106258,-26.840220069213107
5.898394823074341,1,-116.78460685394592,-95.59064860252899,-100.35844787353142,-75.97518574033616,90.6372082106371,-26.84022006887332
5.963160514831543,1,-116.78460685366048,-95.14449161005493,-98.94720404494423,-77.83258656139445,90.63720821064653,-26.84022006858794
6.0280091762542725,1,-116.78460685348247,-94.89438018602297,-98.04193229922294,-78.98796973114592,90.63720821065239,-26.840220068409877
6.094262599945068,1,-116.78460685338354,-94.7646370127443,-97.53023975669909,-79.62940544694757,90.63720821065561,-26.840220068310746
6.1580634117126465,-1,-116.7846068533752,-94.75393563868303,-97.48655297176992,-79.68379360593795,90.63720821065586,-26.840220068302248
